!! 00000] TT[WS
!!!OTL: Da mafang
!!!ARE: Asia, China, Shanxi Heshun
!! Ethnic Group: Han
!! WI, 289 (2)
!!!SCT: J0349
!!!YEM: Copyright 1995, estate of Helmut Schaffrath.
**kern
*ICvox
*Ivox
*M2/4
*k[b-]
*F:
{8dd
16dd
16cc
8dd
8cc
=1
8dd
16dd
16ff
4cc
=2
8dd
16dd
16ff
8cc
16dd
16cc
=3
8b-
16a
16cc
4g}
=4
{8.cc
16g
8cc
8cc
=5
8.g
16a
8g
8f
=6
8e
8g
8d
8f
=7
4c
8f
8g
=8
8e
8d
4c}
==
!!!AGN: Xiaodiao. Xinminge, Xuanchuan
!! Neue Text. Politische Liede
!!!ONB: ESAC (Essen Associative Code) Database: CHINA
!!!AMT: simple duple
!!!AIN: vox
!!!EED: Helmut Schaffrath
!!!EEV: 1.0
*-
